svg/system/wastebasket_line.svg

<?xml version="1.0" encoding="UTF-8"?>
<svg width="24px" height="24px" viewBox="0 0 24 24" version="1.1" xmlns="http://www.w3.org/2000/svg" xmlns:xlink="http://www.w3.org/1999/xlink">
    <title>wastebasket_line</title>
    <g id="页面-1" stroke="none" stroke-width="1" fill="none" fill-rule="evenodd">
        <g id="System" transform="translate(-816.000000, -192.000000)">
            <g id="wastebasket_line" transform="translate(816.000000, 192.000000)">
                 <path d="M24,0 L24,24 L0,24 L0,0 L24,0 Z M12.5934901,23.257841 L12.5819402,23.2595131 L12.5108777,23.2950439 L12.4918791,23.2987469 L12.4918791,23.2987469 L12.4767152,23.2950439 L12.4056548,23.2595131 C12.3958229,23.2563662 12.3870493,23.2590235 12.3821421,23.2649074 L12.3780323,23.275831 L12.360941,23.7031097 L12.3658947,23.7234994 L12.3769048,23.7357139 L12.4804777,23.8096931 L12.4953491,23.8136134 L12.4953491,23.8136134 L12.5071152,23.8096931 L12.6106902,23.7357139 L12.6232938,23.7196733 L12.6232938,23.7196733 L12.6266527,23.7031097 L12.609561,23.275831 C12.6075724,23.2657013 12.6010112,23.2592993 12.5934901,23.257841 L12.5934901,23.257841 Z M12.8583906,23.1452862 L12.8445485,23.1473072 L12.6598443,23.2396597 L12.6498822,23.2499052 L12.6498822,23.2499052 L12.6471943,23.2611114 L12.6650943,23.6906389 L12.6699349,23.7034178 L12.6699349,23.7034178 L12.678386,23.7104931 L12.8793402,23.8032389 C12.8914285,23.8068999 12.9022333,23.8029875 12.9078286,23.7952264 L12.9118235,23.7811639 L12.8776777,23.1665331 C12.8752882,23.1545897 12.8674102,23.1470016 12.8583906,23.1452862 L12.8583906,23.1452862 Z M12.1430473,23.1473072 C12.1332178,23.1423925 12.1221763,23.1452606 12.1156365,23.1525954 L12.1099173,23.1665331 L12.0757714,23.7811639 C12.0751323,23.7926639 12.0828099,23.8018602 12.0926481,23.8045676 L12.108256,23.8032389 L12.3092106,23.7104931 L12.3186497,23.7024347 L12.3186497,23.7024347 L12.3225043,23.6906389 L12.340401,23.2611114 L12.337245,23.2485176 L12.337245,23.2485176 L12.3277531,23.2396597 L12.1430473,23.1473072 Z" id="MingCute" fill-rule="nonzero"></path>
                <path d="M12.0001,3 C9.71855,3 7.61329,3.28764 6.04493,3.77775 C5.26671,4.02095 4.56418,4.33126 4.0345,4.7226 C3.25009,5.30215 2.86335,6.18785 3.01169,7.15206 L4.54744,17.1344 C4.88566,19.3329 6.45072,21.2947 8.79429,21.7012 C9.75615,21.868 10.871,22 12.0001,22 C13.1291,22 14.244,21.868 15.2058,21.7012 C17.5494,21.2947 19.1145,19.3329 19.4527,17.1344 L20.9884,7.15206 C21.1368,6.18785 20.75,5.30215 19.9656,4.7226 C19.4359,4.33126 18.7334,4.02095 17.9552,3.77775 C16.3868,3.28764 14.2816,3 12.0001,3 Z M6.64148,7.31329 C7.96856,7.728 9.86329,8 12.0001,8 C14.1368,8 16.0316,7.728 17.3586,7.31329 C19.0011,6.80002 19.1441,6.24468 17.3586,5.68671 C16.0316,5.272 14.1368,5 12.0001,5 C9.86329,5 7.96856,5.272 6.64148,5.68671 C4.85599,6.24468 4.99901,6.80002 6.64148,7.31329 Z M18.6862,8.96356 C16.5938,9.80266 14.2317,10 12.0001,10 C9.76843,10 7.40629,9.80266 5.31391,8.96356 L6.52418,16.8303 C6.75602,18.3373 7.78583,19.4964 9.13611,19.7306 C10.0235,19.8846 11.0189,20 12.0001,20 C12.9813,20 13.9767,19.8846 14.864,19.7306 C16.2143,19.4964 17.2441,18.3373 17.4759,16.8303 L18.6862,8.96356 Z" id="形状" fill="#09244B"></path>
            </g>
        </g>
    </g>
</svg>

<svg xmlns="http://www.w3.org/2000/svg" width="24" height="24"><g fill="none" fill-rule="evenodd"><path d="M24 0v24H0V0h24ZM12.593 23.258l-.011.002-.071.035-.02.004-.014-.004-.071-.035c-.01-.004-.019-.001-.024.005l-.004.01-.017.428.005.02.01.013.104.074.015.004.012-.004.104-.074.012-.016.004-.017-.017-.427c-.002-.01-.009-.017-.017-.018Zm.265-.113-.013.002-.185.093-.01.01-.003.011.018.43.005.012.008.007.201.093c.012.004.023 0 .029-.008l.004-.014-.034-.614c-.003-.012-.01-.02-.02-.022Zm-.715.002a.023.023 0 0 0-.027.006l-.006.014-.034.614c0 .012.007.02.017.024l.015-.002.201-.093.01-.008.004-.011.017-.43-.003-.012-.01-.01-.184-.092Z"/><path fill="#09244B" d="M12 3c-2.281 0-4.387.288-5.955.778-.778.243-1.48.553-2.01.945-.785.58-1.172 1.465-1.023 2.43l1.535 9.981c.339 2.199 1.904 4.16 4.247 4.567.962.167 2.077.299 3.206.299 1.13 0 2.244-.132 3.206-.299 2.343-.406 3.909-2.368 4.247-4.567l1.535-9.982c.149-.964-.238-1.85-1.022-2.43-.53-.39-1.233-.701-2.01-.944C16.385 3.288 14.281 3 12 3ZM6.641 7.313C7.97 7.728 9.863 8 12.001 8c2.136 0 4.03-.272 5.358-.687 1.642-.513 1.785-1.068 0-1.626C16.032 5.272 14.137 5 12 5s-4.031.272-5.359.687C4.856 6.245 5 6.8 6.641 7.313Zm12.045 1.65C16.594 9.804 14.232 10 12 10s-4.594-.197-6.686-1.036l1.21 7.866c.232 1.507 1.262 2.666 2.612 2.9.888.155 1.883.27 2.864.27.981 0 1.977-.115 2.864-.27 1.35-.234 2.38-1.393 2.612-2.9l1.21-7.866Z"/></g></svg>
